services/automation_icon.svg

<?xml version="1.0" encoding="UTF-8"?>
<svg fill="none" viewBox="0 0 250 251" xmlns="http://www.w3.org/2000/svg">
    <g clip-path="url(#a)">
        <rect y="225.4" width="250" height="25" fill="#000"/>
        <path d="m20 3.4008c0-1.6569 1.3431-3 3-3h204c1.657 0 3 1.3431 3 3v119.7c-4.414-9.106-10.556-17.217-18-23.91v-78.788c0-0.5523-0.448-1-1-1h-172c-0.5523 0-1 0.4477-1 1v113c0 0.552 0.4477 1 1 1h46.877c-1.8315 6.054-2.9432 12.42-3.2353 19h-59.642c-1.6569 0-3-1.343-3-3v-147z" clip-rule="evenodd" fill="#000" fill-rule="evenodd"/>
        <path d="m234.41 179.42c-6.018 19.873-19.795 36.375-37.806 45.982h53.393l-15.587-45.982zm-110.72 45.982h-123.69l20-59h63.14c3.1266 25.608 18.731 47.363 40.548 59z" clip-rule="evenodd" fill="#000" fill-rule="evenodd"/>
        <path d="m160.15 236.9c44.183 0 80-35.817 80-80s-35.817-80-80-80-80 35.817-80 80 35.817 80 80 80zm0-13.79c36.567 0 66.21-29.643 66.21-66.21s-29.643-66.211-66.21-66.211-66.211 29.644-66.211 66.211 29.644 66.21 66.211 66.21z" clip-rule="evenodd" fill="#000" fill-rule="evenodd"/>
        <path d="m148.13 152.76-5.784 3.339 2.574 4.458c-0.821 0.633-1.594 1.31-2.317 2.026l-4.08-3.131-4.066 5.299 4.079 3.13c-0.511 0.893-0.966 1.816-1.361 2.762l-4.967-1.331-1.729 6.451 4.961 1.329c-0.132 1.017-0.202 2.045-0.208 3.076l-5.085 0.669 0.872 6.622 5.075-0.669c0.267 0.986 0.597 1.963 0.992 2.925l-4.433 2.559 3.339 5.784 4.425-2.555c0.635 0.827 1.315 1.604 2.034 2.331l-3.105 4.048 5.298 4.065 3.102-4.042c0.898 0.515 1.827 0.972 2.778 1.37l-1.319 4.921 6.451 1.729 1.317-4.915c1.023 0.133 2.057 0.203 3.094 0.208l0.664 5.039 6.621-0.871-0.663-5.034c0.99-0.269 1.972-0.602 2.939-1l2.54 4.399 5.783-3.339-2.54-4.399c0.828-0.639 1.607-1.322 2.336-2.045l4.028 3.091 4.065-5.299-4.032-3.094c0.514-0.901 0.97-1.831 1.367-2.784l4.915 1.317 1.728-6.451-4.921-1.318c0.131-1.023 0.199-2.055 0.202-3.091l5.052-0.665-0.872-6.621-5.058 0.665c-0.27-0.986-0.603-1.964-1.001-2.927l4.424-2.554-3.339-5.784-4.432 2.559c-0.636-0.823-1.317-1.597-2.037-2.321l3.116-4.061-5.298-4.066-3.123 4.069c-0.896-0.51-1.82-0.963-2.768-1.358l1.329-4.96-6.45-1.729-1.331 4.967c-1.017-0.13-2.043-0.198-3.073-0.202l-0.671-5.097-6.621 0.871 0.671 5.099c-0.982 0.268-1.955 0.599-2.914 0.994l-2.573-4.458zm19.643 40.701c7.276-4.202 9.77-13.507 5.568-20.783-4.201-7.277-13.506-9.771-20.783-5.569-7.276 4.201-9.77 13.506-5.568 20.783 4.201 7.277 13.506 9.77 20.783 5.569z" clip-rule="evenodd" fill="#47B947" fill-rule="evenodd"/>
        <path d="m119.54 113.9-4.049 3.52 2.713 3.121c-0.551 0.625-1.056 1.278-1.517 1.953l-3.697-1.843-2.394 4.801 3.697 1.843c-0.267 0.784-0.484 1.581-0.651 2.387l-4.121-0.288-0.374 5.352 4.116 0.288c0.052 0.823 0.154 1.644 0.307 2.458l-3.907 1.307 1.702 5.088 3.9-1.305c0.361 0.736 0.772 1.456 1.23 2.155l-3.103 2.697 3.52 4.049 3.098-2.693c0.627 0.555 1.283 1.064 1.961 1.527l-1.828 3.667 4.801 2.394 1.827-3.663c0.787 0.269 1.589 0.487 2.401 0.655l-0.286 4.083 5.352 0.374 0.285-4.077c0.828-0.052 1.654-0.156 2.472-0.311l1.296 3.873 5.088-1.703-1.294-3.868c0.739-0.364 1.462-0.777 2.164-1.239l2.677 3.08 4.049-3.52-2.677-3.08c0.555-0.63 1.065-1.289 1.528-1.97l3.65 1.82 2.394-4.802-3.654-1.822c0.267-0.789 0.485-1.592 0.651-2.405l4.078 0.285 0.374-5.352-4.082-0.285c-0.054-0.827-0.159-1.651-0.315-2.469l3.882-1.299-1.703-5.087-3.886 1.3c-0.364-0.737-0.777-1.456-1.239-2.155l3.098-2.693-3.52-4.049-3.103 2.698c-0.628-0.552-1.284-1.058-1.962-1.519l1.835-3.68-4.802-2.394-1.838 3.688c-0.785-0.265-1.584-0.481-2.391-0.647l0.287-4.116-5.352-0.374-0.288 4.121c-0.822 0.053-1.641 0.157-2.454 0.312l-1.311-3.917-5.088 1.702 1.312 3.918c-0.734 0.362-1.45 0.772-2.146 1.23l-2.713-3.121zm21.73 29.086c5.094-4.429 5.634-12.149 1.205-17.243-4.428-5.095-12.148-5.635-17.243-1.206-5.094 4.429-5.634 12.149-1.206 17.243 4.429 5.095 12.149 5.635 17.244 1.206z" clip-rule="evenodd" fill="#47B947" fill-rule="evenodd"/>
        <path d="m198.82 126.56h-4.468v3.444c-0.688 0.092-1.362 0.226-2.02 0.399l-1.317-3.179-4.128 1.71 1.316 3.178c-0.595 0.347-1.167 0.729-1.712 1.145l-2.433-2.433-3.159 3.159 2.429 2.43c-0.417 0.545-0.801 1.117-1.149 1.713l-3.171-1.313-1.709 4.127 3.163 1.311c-0.174 0.66-0.31 1.337-0.403 2.026h-3.424v4.468h3.418c0.091 0.692 0.225 1.37 0.399 2.031l-3.153 1.307 1.709 4.127 3.15-1.304c0.348 0.599 0.733 1.175 1.151 1.723l-2.41 2.41 3.159 3.16 2.407-2.407c0.549 0.419 1.124 0.805 1.723 1.155l-1.301 3.142 4.128 1.71 1.3-3.138c0.664 0.175 1.344 0.31 2.037 0.403v3.399h4.468v-3.399c0.693-0.093 1.373-0.228 2.037-0.403l1.3 3.138 4.128-1.71-1.302-3.142c0.6-0.35 1.175-0.736 1.724-1.155l2.407 2.407 3.159-3.16-2.41-2.41c0.418-0.548 0.803-1.124 1.151-1.723l3.15 1.304 1.709-4.127-3.153-1.307c0.174-0.661 0.308-1.339 0.399-2.031h3.418v-4.468h-3.424c-0.093-0.689-0.229-1.366-0.404-2.026l3.164-1.311-1.709-4.127-3.171 1.313c-0.348-0.596-0.732-1.168-1.149-1.713l2.429-2.43-3.159-3.159-2.433 2.433c-0.545-0.416-1.117-0.798-1.713-1.145l1.317-3.178-4.128-1.71-1.317 3.179c-0.658-0.173-1.332-0.307-2.02-0.399v-3.444zm-2.234 30.153c5.621 0 10.179-4.558 10.179-10.179 0-5.622-4.558-10.179-10.179-10.179-5.622 0-10.179 4.557-10.179 10.179 0 5.621 4.557 10.179 10.179 10.179z" clip-rule="evenodd" fill="#47B947" fill-rule="evenodd"/>
    </g>
    <defs>
        <clipPath id="a">
            <rect transform="translate(0 .40076)" width="250" height="250" fill="#fff"/>
        </clipPath>
    </defs>
</svg>

<svg width="250" height="251" viewBox="0 0 250 251" fill="none" xmlns="http://www.w3.org/2000/svg">
<g clip-path="url(#clip0)">
<rect y="225.401" width="250" height="25" fill="black"/>
<path fill-rule="evenodd" clip-rule="evenodd" d="M20 3.40076C20 1.7439 21.3431 0.400757 23 0.400757H227C228.657 0.400757 230 1.7439 230 3.40076V123.099C225.586 113.993 219.444 105.882 212 99.1892V20.4008C212 19.8485 211.552 19.4008 211 19.4008H39C38.4477 19.4008 38 19.8485 38 20.4008V133.401C38 133.953 38.4477 134.401 39 134.401H85.8772C84.0457 140.455 82.934 146.821 82.6419 153.401H23C21.3431 153.401 20 152.058 20 150.401V3.40076Z" fill="black"/>
<path fill-rule="evenodd" clip-rule="evenodd" d="M234.413 179.419C228.395 199.292 214.618 215.794 196.607 225.401H250L234.413 179.419ZM123.688 225.401H0L20 166.401H83.1402C86.2668 192.009 101.871 213.764 123.688 225.401Z" fill="black"/>
<path fill-rule="evenodd" clip-rule="evenodd" d="M160.148 236.901C204.331 236.901 240.148 201.084 240.148 156.901C240.148 112.718 204.331 76.9008 160.148 76.9008C115.965 76.9008 80.1478 112.718 80.1478 156.901C80.1478 201.084 115.965 236.901 160.148 236.901ZM160.148 223.111C196.715 223.111 226.358 193.468 226.358 156.901C226.358 120.334 196.715 90.6903 160.148 90.6903C123.581 90.6903 93.9373 120.334 93.9373 156.901C93.9373 193.468 123.581 223.111 160.148 223.111Z" fill="black"/>
<path fill-rule="evenodd" clip-rule="evenodd" d="M148.129 152.765L142.345 156.104L144.919 160.562C144.098 161.195 143.325 161.872 142.602 162.588L138.522 159.457L134.456 164.756L138.535 167.886C138.024 168.779 137.569 169.702 137.174 170.648L132.207 169.317L130.478 175.768L135.439 177.097C135.307 178.114 135.237 179.142 135.231 180.173L130.146 180.842L131.018 187.464L136.093 186.795C136.36 187.781 136.69 188.758 137.085 189.72L132.652 192.279L135.991 198.063L140.416 195.508C141.051 196.335 141.731 197.112 142.45 197.839L139.345 201.887L144.643 205.952L147.745 201.91C148.643 202.425 149.572 202.882 150.523 203.28L149.204 208.201L155.655 209.93L156.972 205.015C157.995 205.148 159.029 205.218 160.066 205.223L160.73 210.262L167.351 209.391L166.688 204.357C167.678 204.088 168.66 203.755 169.627 203.357L172.167 207.756L177.95 204.417L175.41 200.018C176.238 199.379 177.017 198.696 177.746 197.973L181.774 201.064L185.839 195.765L181.807 192.671C182.321 191.77 182.777 190.84 183.174 189.887L188.089 191.204L189.817 184.753L184.896 183.435C185.027 182.412 185.095 181.38 185.098 180.344L190.15 179.679L189.278 173.058L184.22 173.723C183.95 172.737 183.617 171.759 183.219 170.796L187.643 168.242L184.304 162.458L179.872 165.017C179.236 164.194 178.555 163.42 177.835 162.696L180.951 158.635L175.653 154.569L172.53 158.638C171.634 158.128 170.71 157.675 169.762 157.28L171.091 152.32L164.641 150.591L163.31 155.558C162.293 155.428 161.267 155.36 160.237 155.356L159.566 150.259L152.945 151.13L153.616 156.229C152.634 156.497 151.661 156.828 150.702 157.223L148.129 152.765ZM167.772 193.466C175.048 189.264 177.542 179.959 173.34 172.683C169.139 165.406 159.834 162.912 152.557 167.114C145.281 171.315 142.787 180.62 146.989 187.897C151.19 195.174 160.495 197.667 167.772 193.466Z" fill="#47B947"/>
<path fill-rule="evenodd" clip-rule="evenodd" d="M119.539 113.901L115.49 117.421L118.203 120.542C117.652 121.167 117.147 121.82 116.686 122.495L112.989 120.652L110.595 125.453L114.292 127.296C114.025 128.08 113.808 128.877 113.641 129.683L109.52 129.395L109.146 134.747L113.262 135.035C113.314 135.858 113.416 136.679 113.569 137.493L109.662 138.8L111.364 143.888L115.264 142.583C115.625 143.319 116.036 144.039 116.494 144.738L113.391 147.435L116.911 151.484L120.009 148.791C120.636 149.346 121.292 149.855 121.97 150.318L120.142 153.985L124.943 156.379L126.77 152.716C127.557 152.985 128.359 153.203 129.171 153.371L128.885 157.454L134.237 157.828L134.522 153.751C135.35 153.699 136.176 153.595 136.994 153.44L138.29 157.313L143.378 155.61L142.084 151.742C142.823 151.378 143.546 150.965 144.248 150.503L146.925 153.583L150.974 150.063L148.297 146.983C148.852 146.353 149.362 145.694 149.825 145.013L153.475 146.833L155.869 142.031L152.215 140.209C152.482 139.42 152.7 138.617 152.866 137.804L156.944 138.089L157.318 132.737L153.236 132.452C153.182 131.625 153.077 130.801 152.921 129.983L156.803 128.684L155.1 123.597L151.214 124.897C150.85 124.16 150.437 123.441 149.975 122.742L153.073 120.049L149.553 116L146.45 118.698C145.822 118.146 145.166 117.64 144.488 117.179L146.323 113.499L141.521 111.105L139.683 114.793C138.898 114.528 138.099 114.312 137.292 114.146L137.579 110.03L132.227 109.656L131.939 113.777C131.117 113.83 130.298 113.934 129.485 114.089L128.174 110.172L123.086 111.874L124.398 115.792C123.664 116.154 122.948 116.564 122.252 117.022L119.539 113.901ZM141.269 142.987C146.363 138.558 146.903 130.838 142.474 125.744C138.046 120.649 130.326 120.109 125.231 124.538C120.137 128.967 119.597 136.687 124.025 141.781C128.454 146.876 136.174 147.416 141.269 142.987Z" fill="#47B947"/>
<path fill-rule="evenodd" clip-rule="evenodd" d="M198.819 126.563H194.351V130.007C193.663 130.099 192.989 130.233 192.331 130.406L191.014 127.227L186.886 128.937L188.202 132.115C187.607 132.462 187.035 132.844 186.49 133.26L184.057 130.827L180.898 133.986L183.327 136.416C182.91 136.961 182.526 137.533 182.178 138.129L179.007 136.816L177.298 140.943L180.461 142.254C180.287 142.914 180.151 143.591 180.058 144.28H176.634V148.748H180.052C180.143 149.44 180.277 150.118 180.451 150.779L177.298 152.086L179.007 156.213L182.157 154.909C182.505 155.508 182.89 156.084 183.308 156.632L180.898 159.042L184.057 162.202L186.464 159.795C187.013 160.214 187.588 160.6 188.187 160.95L186.886 164.092L191.014 165.802L192.314 162.664C192.978 162.839 193.658 162.974 194.351 163.067V166.466H198.819V163.067C199.512 162.974 200.192 162.839 200.856 162.664L202.156 165.802L206.284 164.092L204.982 160.95C205.582 160.6 206.157 160.214 206.706 159.795L209.113 162.202L212.272 159.042L209.862 156.632C210.28 156.084 210.665 155.508 211.013 154.909L214.163 156.213L215.872 152.086L212.719 150.779C212.893 150.118 213.027 149.44 213.118 148.748H216.536V144.28H213.112C213.019 143.591 212.883 142.914 212.708 142.254L215.872 140.943L214.163 136.816L210.992 138.129C210.644 137.533 210.26 136.961 209.843 136.416L212.272 133.986L209.113 130.827L206.68 133.26C206.135 132.844 205.563 132.462 204.967 132.115L206.284 128.937L202.156 127.227L200.839 130.406C200.181 130.233 199.507 130.099 198.819 130.007V126.563ZM196.585 156.716C202.206 156.716 206.764 152.158 206.764 146.537C206.764 140.915 202.206 136.358 196.585 136.358C190.963 136.358 186.406 140.915 186.406 146.537C186.406 152.158 190.963 156.716 196.585 156.716Z" fill="#47B947"/>
</g>
<defs>
<clipPath id="clip0">
<rect width="250" height="250" fill="white" transform="translate(0 0.400757)"/>
</clipPath>
</defs>
</svg>
